src/components/00-materials/images-raw/Piggy Bank.svg

<svg width="96" height="96" viewBox="0 0 96 96" fill="none" xmlns="http://www.w3.org/2000/svg">
<path d="M25 49C26.6569 49 28 47.6569 28 46C28 44.3431 26.6569 43 25 43C23.3431 43 22 44.3431 22 46C22 47.6569 23.3431 49 25 49Z" stroke="#00008F" stroke-width="2" stroke-linecap="round" stroke-linejoin="round"/>
<path d="M12 61C14.2091 61 16 56.5228 16 51C16 45.4772 14.2091 41 12 41C9.79086 41 8 45.4772 8 51C8 56.5228 9.79086 61 12 61Z" stroke="#00008F" stroke-width="2" stroke-linecap="round" stroke-linejoin="round"/>
<path d="M91 43C91 45.3869 90.0518 47.6761 88.364 49.364C86.6761 51.0518 84.3869 52 82 52M20 35.76V27L28.33 29.08" stroke="#00008F" stroke-width="2" stroke-linecap="round" stroke-linejoin="round"/>
<path d="M48 39C55.1797 39 61 33.1797 61 26C61 18.8203 55.1797 13 48 13C40.8203 13 35 18.8203 35 26C35 33.1797 40.8203 39 48 39Z" stroke="#00008F" stroke-width="2" stroke-linecap="round" stroke-linejoin="round"/>
<path d="M12 60.9998H16.37C25 70.9998 38 73.9998 48 73.9998C68 73.9998 82 61.9998 82 50.9998C82 39.7398 73.33 30.0998 61 26.0498M35 26.1098C26.6 28.9398 19.83 34.3598 16.37 40.9998H12" stroke="#00008F" stroke-width="2" stroke-linecap="round" stroke-linejoin="round"/>
<path d="M37.77 34H32.5C31.837 34 31.2011 34.2634 30.7322 34.7322C30.2634 35.2011 30 35.837 30 36.5C30 37.163 30.2634 37.7989 30.7322 38.2678C31.2011 38.7366 31.837 39 32.5 39H63.5C64.163 39 64.7989 38.7366 65.2678 38.2678C65.7366 37.7989 66 37.163 66 36.5C66 35.837 65.7366 35.2011 65.2678 34.7322C64.7989 34.2634 64.163 34 63.5 34H58.23" stroke="#00008F" stroke-width="2" stroke-linecap="round" stroke-linejoin="round"/>
<path d="M48 34C52.4183 34 56 30.4183 56 26C56 21.5817 52.4183 18 48 18C43.5817 18 40 21.5817 40 26C40 30.4183 43.5817 34 48 34Z" stroke="#00008F" stroke-width="2" stroke-linecap="round" stroke-linejoin="round"/>
<path d="M59 73.0001V77.0001C59 77.5306 59.2107 78.0393 59.5858 78.4144C59.9609 78.7894 60.4696 79.0001 61 79.0001H66C66.5304 79.0001 67.0391 78.7894 67.4142 78.4144C67.7893 78.0393 68 77.5306 68 77.0001V69.3901M29 70.1901V77.0001C29 77.5306 29.2107 78.0393 29.5858 78.4144C29.9609 78.7894 30.4696 79.0001 31 79.0001H36C36.5304 79.0001 37.0391 78.7894 37.4142 78.4144C37.7893 78.0393 38 77.5306 38 77.0001V73.0001L29 70.1901Z" stroke="#00008F" stroke-width="2" stroke-linecap="round" stroke-linejoin="round"/>
</svg>

<svg width="96" height="96" viewBox="0 0 96 96" fill="none" xmlns="http://www.w3.org/2000/svg"><path d="M25 49a3 3 0 100-6 3 3 0 000 6zM12 61c2.21 0 4-4.477 4-10s-1.79-10-4-10-4 4.477-4 10 1.79 10 4 10zM91 43a9 9 0 01-9 9M20 35.76V27l8.33 2.08M48 39c7.18 0 13-5.82 13-13s-5.82-13-13-13-13 5.82-13 13 5.82 13 13 13z" stroke="#00008F" stroke-width="2" stroke-linecap="round" stroke-linejoin="round"/><path d="M12 61h4.37C25 71 38 74 48 74c20 0 34-12 34-23 0-11.26-8.67-20.9-21-24.95m-26 .06C26.6 28.94 19.83 34.36 16.37 41H12" stroke="#00008F" stroke-width="2" stroke-linecap="round" stroke-linejoin="round"/><path d="M37.77 34H32.5a2.5 2.5 0 000 5h31a2.5 2.5 0 000-5h-5.27M48 34a8 8 0 100-16 8 8 0 000 16zM59 73v4a2 2 0 002 2h5a2 2 0 002-2v-7.61m-39 .8V77a2 2 0 002 2h5a2 2 0 002-2v-4l-9-2.81z" stroke="#00008F" stroke-width="2" stroke-linecap="round" stroke-linejoin="round"/></svg>
